img/netris/logo.svg

<svg xmlns="http://www.w3.org/2000/svg" width="207" height="55"><defs><clipPath id="a"><path fill="none" d="M0 0h207v55H0z"/></clipPath></defs><g clip-path="url(#a)"><path d="M58.14 11.87V21H68v-9.13h4.27v22.6H68v-9.55h-9.86v9.55h-4.26v-22.6zm24.71 19.56a4.56 4.56 0 0 0 4.06-2.19l3.23 1.62a7.72 7.72 0 0 1-7.36 4.06 8.16 8.16 0 0 1-8.24-8.46A8.2 8.2 0 0 1 83 18c4.59 0 7.82 3.32 7.82 8v1.41H78.45a4.24 4.24 0 0 0 4.4 4.02zm-4.33-7.1H87a3.91 3.91 0 0 0-4.17-3.23 4.54 4.54 0 0 0-4.31 3.23zm18.15-2.19h-4.78v-3.69h13.62v3.69h-4.77v12.33h-4.07zm15.44-3.69v2.3a6.77 6.77 0 0 1 5.55-2.75c4 0 7.37 3.13 7.37 8.46 0 5.13-3.46 8.46-7.72 8.46a6.48 6.48 0 0 1-5.2-2.43v8.56h-4.06v-22.6zm-.26 8a4.52 4.52 0 1 0 9 0 4.52 4.52 0 1 0-9 0zm16.07-8h3.88V29l7-10.56h4.2v16h-3.9V23.91l-7 10.56h-4.21zm26.38 16.47a8.13 8.13 0 0 1-8.42-8.46A8.24 8.24 0 0 1 154.3 18c3.49 0 6 1.52 7.17 4L158 24a4.31 4.31 0 0 0-3.71-2.2c-2.39 0-4.26 1.81-4.26 4.65s1.8 4.65 4.26 4.65a4.56 4.56 0 0 0 4-2.33l3.35 1.84a7.93 7.93 0 0 1-7.34 4.31z" fill="#191e2c"/><path d="M22.73 0L0 13.12v26.24l22.73 13.13 22.74-13.12V13.12zm13.62 11.6l5.89 3.4v6.34l-5.88 5.89zm1.78 28.27L27.53 46l-6-6.11zM3.24 15.67h10.52l-.36.33c-.3.28-.6.58-.87.87l-9.29 9.32zm12.42 2.67A10.44 10.44 0 1 1 15.73 34l-1.18-1.2a10.4 10.4 0 0 1 .25-13.6zm7.72-5.87H7.65l10.21-5.92 6 6zM12.24 35a13.54 13.54 0 0 0 1.19 1.21l11.2 11.41-1.9 1.1L12 42.54v-7.79zm20.87-17.84L20.76 4.87l2-1.14 10.38 6v7.44zM31.5 36.63l10.73-10.72v10.72zm-22.77 4l-5.5-3.13v-6.74l5.5-5.49z" fill="#273a64"/></g></svg>

<?xml version="1.0" encoding="UTF-8" standalone="no"?>
<svg
   width="45.470001"
   height="52.490002"
   version="1.1"
   id="svg13"
   sodipodi:docname="logo.svg"
   inkscape:version="1.1.1 (3bf5ae0d25, 2021-09-20)"
   xmlns:inkscape="http://www.inkscape.org/namespaces/inkscape"
   xmlns:sodipodi="http://sodipodi.sourceforge.net/DTD/sodipodi-0.dtd"
   xmlns="http://www.w3.org/2000/svg"
   xmlns:svg="http://www.w3.org/2000/svg">
  <sodipodi:namedview
     id="namedview15"
     pagecolor="#ffffff"
     bordercolor="#666666"
     borderopacity="1.0"
     inkscape:pageshadow="2"
     inkscape:pageopacity="0.0"
     inkscape:pagecheckerboard="0"
     showgrid="false"
     inkscape:zoom="5.3381643"
     inkscape:cx="103.40633"
     inkscape:cy="27.443891"
     inkscape:window-width="1920"
     inkscape:window-height="1014"
     inkscape:window-x="-8"
     inkscape:window-y="34"
     inkscape:window-maximized="1"
     inkscape:current-layer="svg13" />
  <defs
     id="defs5" />
  <path
     d="M 22.73,0 0,13.12 V 39.36 L 22.73,52.49 45.47,39.37 V 13.12 Z m 13.62,11.6 5.89,3.4 v 6.34 l -5.88,5.89 z m 1.78,28.27 -10.6,6.13 -6,-6.11 z M 3.24,15.67 H 13.76 L 13.4,16 c -0.3,0.28 -0.6,0.58 -0.87,0.87 l -9.29,9.32 z m 12.42,2.67 A 10.44,10.44 0 1 1 15.73,34 L 14.55,32.8 A 10.4,10.4 0 0 1 14.8,19.2 Z m 7.72,-5.87 H 7.65 l 10.21,-5.92 6,6 z M 12.24,35 a 13.54,13.54 0 0 0 1.19,1.21 l 11.2,11.41 -1.9,1.1 L 12,42.54 V 34.75 Z M 33.11,17.16 20.76,4.87 l 2,-1.14 10.38,6 v 7.44 z M 31.5,36.63 42.23,25.91 v 10.72 z m -22.77,4 -5.5,-3.13 v -6.74 l 5.5,-5.49 z"
     fill="#273a64"
     id="path9" />
</svg>
